storage/app/icons/phosphoricons/bold/dots-nine-bold.svg

<svg xmlns="http://www.w3.org/2000/svg" fill="currentColor" viewBox="0 0 256 256"><path d="M76 60a16 16 0 1 1-16-16 16 16 0 0 1 16 16m52-16a16 16 0 1 0 16 16 16 16 0 0 0-16-16m68 32a16 16 0 1 0-16-16 16 16 0 0 0 16 16M60 112a16 16 0 1 0 16 16 16 16 0 0 0-16-16m68 0a16 16 0 1 0 16 16 16 16 0 0 0-16-16m68 0a16 16 0 1 0 16 16 16 16 0 0 0-16-16M60 180a16 16 0 1 0 16 16 16 16 0 0 0-16-16m68 0a16 16 0 1 0 16 16 16 16 0 0 0-16-16m68 0a16 16 0 1 0 16 16 16 16 0 0 0-16-16"/></svg>

<svg xmlns="http://www.w3.org/2000/svg" viewBox="0 0 256 256" fill="currentColor"><path d="M76,60A16,16,0,1,1,60,44,16,16,0,0,1,76,60Zm52-16a16,16,0,1,0,16,16A16,16,0,0,0,128,44Zm68,32a16,16,0,1,0-16-16A16,16,0,0,0,196,76ZM60,112a16,16,0,1,0,16,16A16,16,0,0,0,60,112Zm68,0a16,16,0,1,0,16,16A16,16,0,0,0,128,112Zm68,0a16,16,0,1,0,16,16A16,16,0,0,0,196,112ZM60,180a16,16,0,1,0,16,16A16,16,0,0,0,60,180Zm68,0a16,16,0,1,0,16,16A16,16,0,0,0,128,180Zm68,0a16,16,0,1,0,16,16A16,16,0,0,0,196,180Z"/></svg>
